X: 2550
T: Ballyhoura Mountains, The
R: polka
M: 2/4
K: Gmajor
|:A|B[A/c/]B/ AG|EG GA|BA/B/ AG|AB d>e|
dB AG|EG GA|BA/B/ dB|1 AG G:|2 AG G2||
g>e dB|dB AG|gg/e/ dB|A/B/c d2|
g>e dB|dB AG|BA/B/ dB|1 AG G2:|2 AG G||

